X: 6696
T: Center's Bonnet
R: jig
M: 6/8
K: Amixolydian
|:a3 c2e|Ace cAc|a3 c2e|Ace BGB|
a3 c2e|Ace cAc|dfd cac|Bdc BGB:|
|:eAA cBc|Ace cAc|eAA cBc|Ace BGB|
eAA cBc|Ace cAc|dfd cac|Bdc BGB:|
|:dfe cae|Ace cAc|dfe cae|Ace BGB|
dfe cae|Ace cAc|dfd cac|Bdc BGB:|
aAe cAc|fAe cAc|aAe cAc|fAe BGB|
aAe cAc|fAe cAc|dfd cac|Bdc BGB:|

